build/img/img-bullet-1.svg

<?xml version="1.0" encoding="UTF-8"?>
<svg width="80px" height="78px" viewBox="0 0 80 78" version="1.1" xmlns="http://www.w3.org/2000/svg" xmlns:xlink="http://www.w3.org/1999/xlink">
    <!-- Generator: Sketch 47.1 (45422) - http://www.bohemiancoding.com/sketch -->
    <title>bullet-1</title>
    <desc>Created with Sketch.</desc>
    <defs></defs>
    <g id="Symbols" stroke="none" stroke-width="1" fill="none" fill-rule="evenodd">
        <g id="bullet-1" fill="#FFFFFF">
            <path d="M29.5940705,39.3040984 C30.31875,39.9069558 30.8018697,40.7509563 30.8018697,41.7155282 L32.6135684,41.7155282 C32.6135684,40.2686703 32.0096688,38.9423839 30.8018697,37.9778119 C29.9564103,37.254383 28.7486111,36.772097 27.540812,36.530954 L27.540812,32.7932377 L25.7291132,32.7932377 L25.7291132,36.530954 C24.5213141,36.6515255 23.4342949,37.1338115 22.4680556,37.9778119 C21.2602564,38.9423839 20.6563568,40.2686703 20.6563568,41.7155282 C20.6563568,43.1623862 21.2602564,44.4886726 22.4680556,45.4532445 C23.5550748,46.4178165 25.0044338,46.9001025 26.5745726,46.9001025 C27.6615919,46.9001025 28.7486111,47.2618169 29.5940705,47.9852459 C30.31875,48.5881034 30.8018697,49.4321038 30.8018697,50.3966758 C30.8018697,51.3612477 30.4395299,52.0846767 29.5940705,52.8081056 C28.0239316,54.1343921 25.2459936,54.1343921 23.6758547,52.8081056 C22.9511752,52.2052482 22.4680556,51.3612477 22.4680556,50.3966758 L20.6563568,50.3966758 C20.6563568,51.8435337 21.2602564,53.1698201 22.4680556,54.1343921 C23.313515,54.857821 24.5213141,55.340107 25.7291132,55.58125 L25.7291132,59.3189663 L27.540812,59.3189663 L27.540812,55.58125 C28.7486111,55.4606785 29.8356303,54.9783925 30.8018697,54.1343921 C32.0096688,53.1698201 32.6135684,51.8435337 32.6135684,50.3966758 C32.6135684,48.9498179 32.0096688,47.6235314 30.8018697,46.6589595 C29.7148504,45.6943875 28.2654915,45.0915301 26.6953526,45.0915301 C25.6083333,45.0915301 24.5213141,44.7298156 23.6758547,44.0063866 C22.9511752,43.4035291 22.4680556,42.5595287 22.4680556,41.5949567 C22.4680556,40.7509563 22.8303953,39.9069558 23.6758547,39.1835269 C25.2459936,37.9778119 28.0239316,37.9778119 29.5940705,39.3040984 Z" id="Shape" fill-rule="nonzero"></path>
            <path d="M26.4537927,21.7006603 L26.4537927,19.8920879 C25.8498932,19.8920879 25.2459936,19.8920879 24.642094,20.0126594 L24.7628739,21.8212318 C25.2459936,21.7006603 25.8498932,21.7006603 26.4537927,21.7006603 Z" id="Shape" fill-rule="nonzero"></path>
            <path d="M31.0434295,20.2538024 C30.4395299,20.1332309 29.8356303,20.0126594 29.2317308,20.0126594 L29.1109509,21.8212318 C29.7148504,21.8212318 30.31875,21.9418033 30.8018697,22.0623748 L31.0434295,20.2538024 Z" id="Shape" fill-rule="nonzero"></path>
            <path d="M22.1057158,22.0623748 L21.7433761,20.2538024 C21.1394765,20.3743739 20.5355769,20.4949454 19.9316774,20.6155168 L20.414797,22.3035178 C20.8979167,22.3035178 21.5018162,22.1829463 22.1057158,22.0623748 Z" id="Shape" fill-rule="nonzero"></path>
            <path d="M50.8513355,42.5595287 L52.6630342,42.3183857 C52.5422543,41.7155282 52.4214744,41.1126708 52.3006944,40.5098133 L50.4889957,40.8715278 C50.6097756,41.4743852 50.7305556,42.0772427 50.8513355,42.5595287 Z" id="Shape" fill-rule="nonzero"></path>
            <path d="M35.6330662,21.4595173 C35.0291667,21.2183743 34.4252671,21.0978028 33.8213675,20.8566598 L33.3382479,22.5446607 C33.9421474,22.6652322 34.4252671,22.9063752 35.0291667,23.0269467 L35.6330662,21.4595173 Z" id="Shape" fill-rule="nonzero"></path>
            <path d="M17.8784188,23.2680897 L17.2745192,21.5800888 C16.6706197,21.8212318 16.0667201,22.0623748 15.5836004,22.3035178 L16.3082799,23.8709472 C16.7913996,23.7503757 17.2745192,23.5092327 17.8784188,23.2680897 Z" id="Shape" fill-rule="nonzero"></path>
            <path d="M10.3900641,27.8498065 L9.18226496,26.52352 C8.6991453,26.8852345 8.21602564,27.3675205 7.8536859,27.8498065 L9.18226496,29.0555214 C9.5446047,28.6938069 9.90694444,28.2115209 10.3900641,27.8498065 Z" id="Shape" fill-rule="nonzero"></path>
            <path d="M13.8926816,25.1972336 L12.9264423,23.6298042 C12.4433226,23.9915187 11.8394231,24.3532332 11.3563034,24.7149476 L12.4433226,26.1618056 C12.9264423,25.9206626 13.409562,25.5589481 13.8926816,25.1972336 Z" id="Shape" fill-rule="nonzero"></path>
            <path d="M39.8603632,23.5092327 C39.3772436,23.1475182 38.773344,22.9063752 38.1694444,22.6652322 L37.323985,24.2326617 C37.8071047,24.4738046 38.4110043,24.7149476 38.8941239,25.0766621 L39.8603632,23.5092327 Z" id="Shape" fill-rule="nonzero"></path>
            <path d="M51.455235,54.4961066 L49.7643162,53.8932491 C49.5227564,54.4961066 49.4019765,54.9783925 49.1604167,55.4606785 L50.8513355,56.1841075 C51.0928953,55.58125 51.2136752,55.098964 51.455235,54.4961066 Z" id="Shape" fill-rule="nonzero"></path>
            <path d="M49.7643162,38.3395264 L51.455235,37.7366689 C51.2136752,37.1338115 51.0928953,36.530954 50.8513355,36.048668 L49.1604167,36.772097 C49.4019765,37.254383 49.6435363,37.8572404 49.7643162,38.3395264 Z" id="Shape" fill-rule="nonzero"></path>
            <path d="M52.5422543,49.9143898 L50.7305556,49.6732468 C50.6097756,50.2761043 50.4889957,50.7583903 50.3682158,51.3612477 L52.1799145,51.7229622 C52.4214744,51.1201047 52.4214744,50.5172473 52.5422543,49.9143898 Z" id="Shape" fill-rule="nonzero"></path>
            <path d="M47.1071581,59.3189663 L48.5565171,60.2835383 C48.9188568,59.8012523 49.1604167,59.1983948 49.5227564,58.7161088 L47.9526175,57.8721084 C47.7110577,58.3543944 47.3487179,58.8366803 47.1071581,59.3189663 Z" id="Shape" fill-rule="nonzero"></path>
            <path d="M7.37056624,31.1052368 L5.92120726,30.0200934 C5.55886752,30.5023793 5.19652778,30.9846653 4.83418803,31.4669513 L6.28354701,32.4315232 C6.64588675,31.9492372 7.0082265,31.4669513 7.37056624,31.1052368 Z" id="Shape" fill-rule="nonzero"></path>
            <path d="M43.7253205,26.1618056 C43.2422009,25.8000911 42.7590812,25.3178051 42.2759615,24.9560906 L41.1889423,26.4029485 C41.672062,26.764663 42.1551816,27.1263775 42.5175214,27.488092 L43.7253205,26.1618056 Z" id="Shape" fill-rule="nonzero"></path>
            <path d="M49.6435363,33.5166667 C49.4019765,32.9138092 49.0396368,32.4315232 48.677297,31.9492372 L47.1071581,32.9138092 C47.4694979,33.3960952 47.7110577,33.8783811 47.9526175,34.3606671 L49.6435363,33.5166667 Z" id="Shape" fill-rule="nonzero"></path>
            <path d="M46.9863782,29.5378074 C46.6240385,29.0555214 46.1409188,28.5732354 45.7785791,28.0909495 L44.45,29.2966644 C44.8123397,29.7789504 45.1746795,30.1406648 45.5370192,30.6229508 L46.9863782,29.5378074 Z" id="Shape" fill-rule="nonzero"></path>
            <path d="M7.97446581,64.382969 C8.45758547,64.865255 8.81992521,65.2269695 9.30304487,65.7092555 L10.510844,64.382969 C10.0277244,64.0212546 9.66538462,63.6595401 9.30304487,63.1772541 L7.97446581,64.382969 Z" id="Shape" fill-rule="nonzero"></path>
            <path d="M20.1732372,71.3761157 C20.7771368,71.4966872 21.3810363,71.6172587 21.9849359,71.7378301 L22.3472756,69.9292577 C21.7433761,69.8086862 21.2602564,69.6881148 20.6563568,69.5675433 L20.1732372,71.3761157 Z" id="Shape" fill-rule="nonzero"></path>
            <path d="M15.7043803,69.8086862 C16.3082799,70.0498292 16.7913996,70.2909722 17.3952991,70.5321152 L17.9991987,68.8441143 C17.5160791,68.6029713 16.9121795,68.3618283 16.4290598,68.1206853 L15.7043803,69.8086862 Z" id="Shape" fill-rule="nonzero"></path>
            <path d="M24.7628739,72.0995446 C25.3667735,72.0995446 25.9706731,72.2201161 26.5745726,72.2201161 L26.5745726,70.4115437 C25.9706731,70.4115437 25.3667735,70.4115437 24.8836538,70.2909722 L24.7628739,72.0995446 Z" id="Shape" fill-rule="nonzero"></path>
            <path d="M5.07574786,34.7223816 L3.50560897,33.8783811 C3.26404915,34.4812386 2.9017094,34.9635246 2.66014957,35.5663821 L4.35106838,36.289811 C4.47184829,35.807525 4.71340812,35.2046676 5.07574786,34.7223816 Z" id="Shape" fill-rule="nonzero"></path>
            <path d="M33.5798077,69.3264003 L34.0629274,71.0144012 C34.6668269,70.8938297 35.2707265,70.6526867 35.8746261,70.4115437 L35.2707265,68.7235428 C34.6668269,69.0852573 34.1837073,69.2058288 33.5798077,69.3264003 Z" id="Shape" fill-rule="nonzero"></path>
            <path d="M51.0928953,45.2121015 C51.0928953,45.4532445 51.0928953,45.6943875 51.0928953,45.9355305 C51.0928953,46.297245 51.0928953,46.538388 51.0928953,46.9001025 L52.904594,47.020674 C52.904594,46.6589595 52.904594,46.297245 52.904594,45.9355305 C52.904594,45.6943875 52.904594,45.332673 52.904594,45.0915301 L51.0928953,45.2121015 Z" id="Shape" fill-rule="nonzero"></path>
            <path d="M11.5978632,67.3972564 C12.0809829,67.7589709 12.6848825,68.1206853 13.1680021,68.3618283 L14.1342415,66.7943989 C13.6511218,66.5532559 13.1680021,66.1915414 12.6848825,65.829827 L11.5978632,67.3972564 Z" id="Shape" fill-rule="nonzero"></path>
            <path d="M29.2317308,70.2909722 L29.4732906,72.0995446 C30.0771902,71.9789731 30.6810897,71.9789731 31.2849893,71.8584016 L30.9226496,70.0498292 C30.4395299,70.0498292 29.8356303,70.1704007 29.2317308,70.2909722 Z" id="Shape" fill-rule="nonzero"></path>
            <path d="M2.41858974,43.0418147 L0.606891026,42.8006717 C0.486111111,43.4035291 0.486111111,44.0063866 0.486111111,44.6092441 L2.29780983,44.7298156 C2.29780983,44.2475296 2.41858974,43.6446721 2.41858974,43.0418147 Z" id="Shape" fill-rule="nonzero"></path>
            <path d="M2.29780983,47.5029599 L0.486111111,47.5029599 C0.486111111,48.1058174 0.606891026,48.7086749 0.606891026,49.3115323 L2.41858974,49.0703893 C2.41858974,48.5881034 2.29780983,47.9852459 2.29780983,47.5029599 Z" id="Shape" fill-rule="nonzero"></path>
            <path d="M4.95496795,60.7658242 C5.31730769,61.2481102 5.67964744,61.7303962 6.04198718,62.2126821 L7.49134615,61.1275387 C7.12900641,60.6452527 6.76666667,60.1629668 6.40432692,59.6806808 L4.95496795,60.7658242 Z" id="Shape" fill-rule="nonzero"></path>
            <path d="M3.38482906,38.8218124 L1.69391026,38.3395264 C1.45235043,38.9423839 1.33157051,39.5452413 1.2107906,40.1480988 L2.9017094,40.5098133 C3.02248932,39.9069558 3.14326923,39.3040984 3.38482906,38.8218124 Z" id="Shape" fill-rule="nonzero"></path>
            <path d="M4.35106838,55.9429645 L2.66014957,56.6663934 C2.9017094,57.2692509 3.14326923,57.7515369 3.50560897,58.3543944 L5.07574786,57.5103939 C4.83418803,57.0281079 4.59262821,56.4252505 4.35106838,55.9429645 Z" id="Shape" fill-rule="nonzero"></path>
            <path d="M2.9017094,51.8435337 L1.2107906,52.3258197 C1.33157051,52.9286771 1.57313034,53.5315346 1.69391026,54.1343921 L3.38482906,53.5315346 C3.26404915,52.9286771 3.02248932,52.3258197 2.9017094,51.8435337 Z" id="Shape" fill-rule="nonzero"></path>
            <path d="M65.9488248,5.18236566 C58.7020299,5.18236566 52.904594,11.0903689 52.904594,18.204087 C52.904594,25.4383766 58.8228098,31.2258083 65.9488248,31.2258083 C73.0748397,31.2258083 78.9930556,25.3178051 78.9930556,18.204087 C78.9930556,10.9697974 73.0748397,5.18236566 65.9488248,5.18236566 Z M65.9488248,29.4172359 C59.7890491,29.4172359 54.7162927,24.3532332 54.7162927,18.204087 C54.7162927,12.0549408 59.7890491,6.99093807 65.9488248,6.99093807 C72.1086004,6.99093807 77.1813568,12.0549408 77.1813568,18.204087 C77.1813568,24.3532332 72.1086004,29.4172359 65.9488248,29.4172359 Z" id="Shape" fill-rule="nonzero"></path>
            <path d="M52.6630342,63.9006831 C52.6630342,63.5389686 52.4214744,63.1772541 52.0591346,63.0566826 L42.0344017,59.8012523 C45.5370192,55.9429645 47.3487179,51.1201047 47.3487179,45.9355305 C47.3487179,34.4812386 38.0486645,25.3178051 26.6953526,25.3178051 C15.3420406,25.3178051 5.92120726,34.6018101 5.92120726,46.056102 C5.92120726,57.5103939 15.2212607,66.6738274 26.5745726,66.6738274 C29.7148504,66.6738274 32.7343483,65.9503985 35.5122863,64.624112 L39.1356838,75.9578324 C39.2564637,76.3195469 39.6188034,76.5606899 39.9811432,76.5606899 C39.9811432,76.5606899 39.9811432,76.5606899 39.9811432,76.5606899 C40.3434829,76.5606899 40.7058226,76.3195469 40.8266026,75.9578324 L43.4837607,68.7235428 L51.0928953,76.3195469 C51.2136752,76.4401184 51.455235,76.5606899 51.6967949,76.5606899 C51.9383547,76.5606899 52.1799145,76.4401184 52.3006944,76.3195469 C52.6630342,75.9578324 52.6630342,75.354975 52.3006944,74.9932605 L44.6915598,67.3972564 L51.9383547,64.7446835 C52.4214744,64.624112 52.6630342,64.2623975 52.6630342,63.9006831 Z M26.6953526,64.865255 C16.1875,64.865255 7.73290598,56.4252505 7.73290598,46.056102 C7.73290598,35.6869536 16.1875,27.1263775 26.6953526,27.1263775 C37.2032051,27.1263775 45.6577991,35.5663821 45.6577991,46.056102 C45.6577991,51.1201047 43.7253205,55.7018215 40.222703,59.3189663 L34.9083868,57.6309654 C34.546047,57.5103939 34.1837073,57.6309654 33.9421474,57.8721084 C33.7005876,58.1132514 33.5798077,58.4749658 33.7005876,58.8366803 L35.0291667,63.0566826 C32.3720085,64.2623975 29.5940705,64.865255 26.6953526,64.865255 Z M42.8798611,66.1915414 C42.8798611,66.1915414 42.8798611,66.1915414 42.8798611,66.1915414 C42.7590812,66.1915414 42.6383013,66.3121129 42.5175214,66.4326844 C42.3967415,66.5532559 42.3967415,66.6738274 42.2759615,66.7943989 C42.2759615,66.7943989 42.2759615,66.7943989 42.2759615,66.7943989 L39.9811432,72.9435451 L35.7538462,59.8012523 L48.9188568,64.0212546 L42.8798611,66.1915414 Z" id="Shape" fill-rule="nonzero"></path>
            <path d="M65.0717083,22.2777778 L65.0717083,20.5655 L62.0867917,20.5655 L64.0535972,18.483 C64.7130556,17.7888333 65.0717083,17.3260556 65.0717083,16.4583472 C65.0717083,14.9080417 63.9610417,13.9709167 62.433875,13.9709167 C60.9992639,13.9709167 59.7729028,14.8617639 59.7729028,16.4814861 L61.6702917,16.4814861 C61.6702917,15.8451667 62.0867917,15.6831944 62.433875,15.6831944 C62.9197917,15.6831944 63.1743194,15.9955694 63.1743194,16.4467778 C63.1743194,16.7938611 63.058625,17.0021111 62.7578194,17.3260556 L59.7729028,20.5655 L59.7729028,22.2777778 L65.0717083,22.2777778 Z M71.7241389,21.19025 L71.7241389,19.3854167 L71.1109583,19.3854167 L71.1109583,18.2978889 L69.306125,18.2978889 L69.306125,19.3854167 L67.9756389,19.3854167 L70.7060278,14.0403333 L68.6235278,14.0403333 L65.8931389,19.3854167 L65.8931389,21.19025 L69.306125,21.19025 L69.306125,22.2777778 L71.1109583,22.2777778 L71.1109583,21.19025 L71.7241389,21.19025 Z" id="24"></path>
            <rect id="Rectangle" x="64.9444444" y="0.791666667" width="2.47916667" height="5.78472222"></rect>
            <rect id="Rectangle-Copy" transform="translate(66.184028, 2.031250) rotate(-90.000000) translate(-66.184028, -2.031250) " x="64.9444444" y="-0.861111111" width="2.47916667" height="5.78472222"></rect>
        </g>
    </g>
</svg>

<svg width="80" height="78" viewBox="0 0 80 78" xmlns="http://www.w3.org/2000/svg"><title>bullet-1</title><g id="Symbols" fill="none" fill-rule="evenodd"><g id="bullet-1" fill="#FFF"><path d="M29.594 39.304c.725.603 1.208 1.447 1.208 2.412h1.812c0-1.447-.604-2.774-1.812-3.738-.846-.724-2.053-1.206-3.261-1.447v-3.738h-1.812v3.738c-1.208.12-2.295.603-3.26 1.447-1.209.964-1.813 2.29-1.813 3.738 0 1.446.604 2.773 1.812 3.737 1.087.965 2.536 1.447 4.107 1.447 1.087 0 2.174.362 3.02 1.085.724.603 1.207 1.447 1.207 2.412 0 .964-.362 1.688-1.208 2.411-1.57 1.326-4.348 1.326-5.918 0-.725-.603-1.208-1.447-1.208-2.411h-1.812c0 1.447.604 2.773 1.812 3.737.846.724 2.053 1.206 3.261 1.447v3.738h1.812v-3.738c1.208-.12 2.295-.603 3.26-1.447 1.209-.964 1.813-2.29 1.813-3.737s-.604-2.773-1.812-3.738a6.199 6.199 0 0 0-4.107-1.567c-1.087 0-2.174-.362-3.02-1.086-.724-.602-1.207-1.446-1.207-2.411 0-.844.362-1.688 1.208-2.411 1.57-1.206 4.348-1.206 5.918.12zM26.454 21.7v-1.808c-.604 0-1.208 0-1.812.12l.12 1.81c.484-.121 1.088-.121 1.692-.121zm4.589-1.446c-.603-.12-1.207-.241-1.811-.241l-.121 1.808c.604 0 1.208.12 1.69.241l.242-1.808zm-8.937 1.808l-.363-1.808c-.604.12-1.207.24-1.811.362l.483 1.688c.483 0 1.087-.121 1.69-.242zM50.851 42.56l1.812-.242-.362-1.808-1.812.362c.12.602.242 1.205.362 1.688zm-15.218-21.1c-.604-.242-1.208-.362-1.812-.603l-.483 1.688c.604.12 1.087.361 1.691.482l.604-1.567zm-17.755 1.808l-.603-1.688c-.604.241-1.208.482-1.691.724l.724 1.567c.483-.12.967-.362 1.57-.603zM10.39 27.85l-1.208-1.326a6.915 6.915 0 0 0-1.328 1.326l1.328 1.206c.363-.362.725-.844 1.208-1.206zm3.503-2.653l-.967-1.567c-.483.362-1.087.723-1.57 1.085l1.087 1.447c.483-.241.967-.603 1.45-.965zM39.86 23.51c-.483-.362-1.087-.604-1.69-.845l-.846 1.568c.483.24 1.087.482 1.57.844l.966-1.568zm11.595 30.986l-1.69-.603c-.242.603-.363 1.085-.605 1.568l1.691.723c.242-.603.363-1.085.604-1.688zM49.764 38.34l1.691-.603c-.241-.603-.362-1.206-.604-1.688l-1.69.723c.241.482.483 1.085.603 1.568zm2.778 11.574l-1.811-.24c-.121.602-.242 1.084-.363 1.687l1.812.362c.241-.603.241-1.206.362-1.809zm-5.435 9.405l1.45.965c.362-.483.603-1.086.966-1.568l-1.57-.844c-.242.482-.604.965-.846 1.447zM7.37 31.105L5.922 30.02l-1.087 1.447 1.45.965c.362-.483.724-.965 1.087-1.327zm36.355-4.943c-.483-.362-.966-.844-1.449-1.206l-1.087 1.447c.483.362.966.723 1.329 1.085l1.207-1.326zm5.919 7.355c-.242-.603-.604-1.085-.967-1.568l-1.57.965c.362.482.604.964.846 1.447l1.69-.844zm-2.658-3.979c-.362-.482-.845-.965-1.207-1.447l-1.329 1.206c.362.482.725.844 1.087 1.326l1.45-1.085zM7.974 64.383l1.329 1.326 1.208-1.326a5.72 5.72 0 0 1-1.208-1.206l-1.329 1.206zm12.199 6.993l1.812.362.362-1.809c-.604-.12-1.087-.24-1.69-.361l-.484 1.808zm-4.469-1.567c.604.24 1.087.482 1.691.723L18 68.844c-.483-.241-1.087-.482-1.57-.723l-.725 1.688zm9.059 2.291c.604 0 1.208.12 1.812.12v-1.808c-.604 0-1.208 0-1.691-.121l-.121 1.809zM5.076 34.722l-1.57-.844c-.242.603-.604 1.086-.846 1.688l1.691.724c.12-.482.362-1.085.725-1.568zM33.58 69.326l.483 1.688c.604-.12 1.208-.361 1.812-.602l-.604-1.688c-.604.361-1.087.482-1.691.602zm17.513-24.114V46.9l1.812.12v-1.928l-1.812.12zM11.598 67.397a11.03 11.03 0 0 0 1.57.965l.966-1.568c-.483-.24-.966-.602-1.45-.964l-1.086 1.567zm17.634 2.894l.241 1.809c.604-.121 1.208-.121 1.812-.242l-.362-1.808c-.483 0-1.087.12-1.691.241zM2.419 43.042L.607 42.8c-.12.603-.12 1.205-.12 1.808l1.81.12c0-.481.122-1.084.122-1.687zm-.121 4.461H.486c0 .603.12 1.206.12 1.809l1.813-.242c0-.482-.121-1.085-.121-1.567zm2.657 13.263l1.087 1.447 1.45-1.085-1.088-1.447-1.449 1.085zm-1.57-21.944l-1.691-.482c-.242.602-.362 1.205-.483 1.808l1.69.362c.121-.603.242-1.206.484-1.688zm.966 17.121l-1.69.723c.24.603.482 1.086.845 1.688l1.57-.844c-.242-.482-.483-1.085-.725-1.567zm-1.449-4.099l-1.691.482c.12.603.362 1.206.483 1.808l1.69-.602c-.12-.603-.362-1.206-.482-1.688zM65.949 5.182c-7.247 0-13.044 5.908-13.044 13.022 0 7.234 5.918 13.022 13.044 13.022s13.044-5.908 13.044-13.022c0-7.234-5.918-13.022-13.044-13.022zm0 24.235c-6.16 0-11.233-5.064-11.233-11.213 0-6.15 5.073-11.213 11.233-11.213S77.18 12.055 77.18 18.204c0 6.15-5.072 11.213-11.232 11.213z" id="Shape" fill-rule="nonzero"/><path d="M52.663 63.9a.907.907 0 0 0-.604-.843L42.034 59.8c3.503-3.858 5.315-8.68 5.315-13.865 0-11.455-9.3-20.618-20.654-20.618-11.353 0-20.774 9.284-20.774 20.738 0 11.454 9.3 20.618 20.654 20.618 3.14 0 6.16-.724 8.937-2.05l3.624 11.334c.12.362.483.603.845.603a.908.908 0 0 0 .846-.603l2.657-7.234 7.609 7.596c.12.12.362.24.604.24.241 0 .483-.12.604-.24a.945.945 0 0 0 0-1.327l-7.61-7.596 7.247-2.652c.483-.12.725-.483.725-.844zm-25.968.965c-10.508 0-18.962-8.44-18.962-18.809 0-10.369 8.454-18.93 18.962-18.93s18.963 8.44 18.963 18.93c0 5.064-1.933 9.646-5.435 13.263l-5.315-1.688a.94.94 0 0 0-.966.241.938.938 0 0 0-.241.965l1.328 4.22a19.946 19.946 0 0 1-8.334 1.808zm16.185 1.327c-.12 0-.242.12-.362.24-.121.121-.121.242-.242.362l-2.295 6.15L35.754 59.8l13.165 4.22-6.04 2.17z" id="Shape" fill-rule="nonzero"/><path d="M65.072 22.278v-1.712h-2.985l1.967-2.083c.66-.694 1.018-1.157 1.018-2.025 0-1.55-1.111-2.487-2.638-2.487-1.435 0-2.661.89-2.661 2.51h1.897c0-.636.417-.798.764-.798.486 0 .74.313.74.764 0 .347-.115.555-.416.88l-2.985 3.238v1.713h5.299zm6.652-1.088v-1.805h-.613v-1.087h-1.805v1.087h-1.33l2.73-5.345h-2.082l-2.73 5.345v1.805h3.412v1.088h1.805V21.19h.613z" id="24"/><path id="Rectangle" d="M64.944.792h2.479v5.785h-2.479z"/><path id="Rectangle-Copy" transform="rotate(-90 66.184 2.031)" d="M64.944-.861h2.479v5.785h-2.479z"/></g></g></svg>
